**kern
*I"Piano, Piano
*clefG2
*k[]
*M4/4
*MM130
=1
1r
=2
1r
=3
*k[b-e-a-]
2r
4r
8gL
8b-J
=4
8.ccL
[16a-Jk
8a-L]
8gJ
8fL
8e-
8f
8ccJ
=5
8b-L
16ccL
[16gJJ
8gL]
8fJ
2e-
=6
1r
=7
2r
4r
8gL
8b-J
=8
8.ccL
[16a-Jk
8a-L]
8gJ
8fL
8dd
8cc
8b-J
=9
8b-L
8cc
8dd
[8ee-J
8ee-L]
8g
8f
8fJ
=10
2e-
2d
=11
2cc
2r
=12
8cL
8d
8e-
8dJ
8r
8B-L
8G
[8B-J
=13
8B-L]
8cJ
8r
8B-
8B-L
8c
8e-
8fJ
=14
8gL
8c
8c
8gJ
8fL
8b-
8a-
[8a-J
=15
8a-L]
8gJ
8r
8g
8ccL
8b-
8g
8fJ
=16
8e-L
8c
8e-
8cJ
8.e-L
[16fJk
16f]
16r
8d
=17
8dL
16gL
[16dJJ
8dL]
8B-J
4c'
8cL
8dJ
=18
8e-L
8f
8g
[8fJ
16f]
16r
8d
8dL
[8dJ
=19
8dL]
8cJ
4c'
4r
8r
8c
=20
8cL
8d
8e-
8dJ
8r
8B-L
8G
[8B-J
=21
8B-L]
8cJ
8r
8B-
8B-L
8c
8e-
8b-J
=22
8gL
8f
8g
8b-J
8ccL
8b-
8g
[8fJ
=23
8fL]
8gJ
8r
8g
8ccL
8b-
8g
8fJ
=24
8e-L
8c
8e-
8cJ
8.e-L
[16fJk
16f]
16r
8e-
=25
8dL
16gL
[16dJJ
8dL]
8B-J
4c'
8cL
8dJ
=26
8e-L
8f
8g
8fJ
8r
8dL
8d
[8dJ
=27
8d]
4.c'
8r
16B-LL
16B-JJ
8B-L
8cJ
=28
8e-'L
16cL
16e-JJ
16r
16cKL
8f'J
16r
16dLL
16g
16gJJ
8fL
8gJ
=29
8f'L
16dL
16B-JJ
16r
16B-KL
8c'J
16r
16gLL
16g
16gJJ
16gLL
16a-
16b-
[16gJJ
=30
8gL]
16e-L
16cJJ
16e-LL
16f
16f
[16gJJ
8gL]
16e-L
16cJJ
16e-LL
16c
16e-
[16fJJ
=31
8fL]
8gJ
8r
8g
8a-L
16b-L
[16gJJ
16gLL]
16fJ
8e-J
=32
8r
8cL
8e-
8gJ
8fL
8e-
8e-
8fJ
=33
8gL
8b-
8g
[8fJ
8fL]
8e-
8d
8B-J
=34
8cL
8B-
8c
[8e-J
8e-L]
8c
8e-
8a-J
=35
4g
4r
8r
8ee-L
8dd
8b-J
=36
8.b-L
[16ccJk
16cc]
16r
8g
8fL
8e-
8f
8ccJ
=37
8b-L
16ccL
[16gJJ
8gL]
8fJ
4e-'
8e-L
8b-J
=38
8a-L
8g
8f
8e-J
8dL
8e-
8f
8a-J
=39
8gL
16fL
[16gJJ
8gL]
8ccJ
4b-
8gL
8b-J
=40
8.ccL
[16a-Jk
8a-L]
8gJ
8fL
8e-
8f
8ccJ
=41
8b-L
16ccL
[16gJJ
8gL]
8fJ
4e-'
8cL
8dJ
=42
8e-L
8c
8e-
8fJ
8gL
8e-
8g
8ccJ
=43
4b-
8r
8e-
8e-L
8ee-
8dd
8b-J
=44
8.b-L
[16ccJk
8ccL]
8gJ
8fL
8e-
8f
8ccJ
=45
8b-L
16ccL
[16gJJ
8gL]
8fJ
4e-'
8e-L
8b-J
=46
8a-L
8g
8f
8e-J
8dL
8e-
8f
8a-J
=47
8gL
16fL
[16gJJ
8gL]
8ccJ
4b-
8gL
8b-J
=48
8.ccL
[16a-Jk
8a-L]
8gJ
8fL
8dd
8cc
8b-J
=49
8b-L
8cc
8dd
[8ee-J
8ee-L]
8g
8f
8e-J
=50
8r
8c
8e-L
16a-L
[16gJJ
16g]
16r
8e-
8fL
8e-J
=51
1r
=52
1r
=53
1r
=54
1r
=55
8cL
8d
8e-
8dJ
8r
8B-L
8G
[8B-J
=56
8B-L]
8cJ
8r
8B-
8B-L
8c
8e-
8b-J
=57
8gL
8f
8g
8b-J
8ccL
8b-
8g
[8fJ
=58
8fL]
8gJ
8r
8g
8ccL
8b-
8g
8fJ
=59
8e-L
8c
8e-
8cJ
8.e-L
[16fJk
16f]
16r
8e-
=60
8dL
16gL
[16dJJ
8dL]
8B-J
4c'
4r
=61
1r
=62
2r
4r
8cL
16cL
16cJJ
=63
8e-L
16e-L
16e-JJ
8e-L
16e-L
16e-JJ
8e-L
16e-L
16e-JJ
8e-L
16e-L
16e-JJ
=64
8.e-L
[16e-Jk
16e-LL]
16dJ
8e-J
4c'
16cLL
16c
16c
16cJJ
=65
8e-L
16e-L
16e-JJ
16e-LL
16e-
16e-
[16e-JJ
16e-LL]
16e-
16e-
16e-JJ
8e-L
16e-L
16cJJ
=66
8e-L
16cL
[16e-JJ
16e-LL]
16cJ
8ccJ
8.b-'L
16e-Jk
16gLL
16a-
16b-
[16fJJ
=67
8fL]
16e-L
16e-JJ
16gLL
16a-
16b-
[16fJJ
8fL]
16e-L
16e-JJ
16gLL
16a-
16b-
[16fJJ
=68
8fL]
8e-
8g
8b-J
8ccL
8b-
8g
8fJ
=69
4e-'
8cL
8e-J
8a-L
8g
8e-
8fJ
=70
4e-
4r
2r
=71
8b-L
16b-L
16b-JJ
8b-L
16b-L
16b-JJ
8b-L
16a-L
[16gJJ
16gKL]
8f
[16fJk
=72
8fL]
8e-
8c
8e-J
8ccL
16b-L
[16gJJ
16gKL]
8b-
[16gJk
=73
8gL]
16cL
[16cJJ
16cKL]
8g
[16fJk
8fL]
8g
8ee-
8ddJ
=74
8b-L
16gL
[16b-JJ
16b-KL]
8cc
[16b-Jk
8b-L]
8g
8f
8e-J
=75
8b-L
16b-L
16b-JJ
8b-L
8b-J
8b-L
16a-L
[16gJJ
16gKL]
8b-
[16fJk
=76
8fL]
8e-
8c
8e-J
8ccL
8b-
8g
8fJ
=77
8e-L
8c
8e-
8a-J
8gL
8e-
8c
[8e-J
=78
8e-]
8r
4r
8r
8B-
16B-LL
16B-
16B-
16cJJ
=79
8e-'L
16cL
16e-JJ
16r
16cKL
8f'J
16r
16dLL
16g
16gJJ
8fL
8gJ
=80
8f'L
16dL
16B-JJ
16r
16B-KL
8c'J
16r
16gLL
16g
16gJJ
16gLL
16a-
16b-
[16gJJ
=81
8gL]
16e-L
16cJJ
16e-LL
16f
16f
[16gJJ
8gL]
16e-L
16cJJ
16e-LL
16c
16e-
[16fJJ
=82
8fL]
8gJ
8r
8g
8ccL
8b-
8g
8fJ
=83
8e-'L
16cL
16e-JJ
16r
16cKL
8f'J
16r
16gLL
16cc
16ccJJ
16ccLL
16b-
16b-
16ccJJ
=84
8b-'L
16fL
16fJJ
16r
16gKL
8e-'J
4r
8e-L
8fJ
=85
8.gL
[16e-Jk
8e-L]
[8gJ
16gKL]
8e-
16e-Jk
8gL
8ccJ
=86
4.b-
[8g
8gL]
8f
8a-
8gJ
=87
*k[f#c#]
2r
8r
8ddL
8cc#
8aJ
=88
8.aL
[16bJk
8bL]
8f#J
8eL
8d
8e
8bJ
=89
8.aL
[16f#Jk
16f#LL]
16dJ
8eJ
4d'
8dL
8aJ
=90
8gL
8f#
8e
8dJ
8c#L
8d
8e
8gJ
=91
8.f#'L
16eJk
16f#KL
8.bJ
4a'
8f#L
8aJ
=92
8.bL
[16gJk
8gL]
8f#J
8eL
8d
8e
8bJ
=93
8aL
16bL
[16f#JJ
8f#L]
8eJ
4d'
8BL
8c#J
=94
8dL
8B
8d
8eJ
8f#L
8d
8f#
8bJ
=95
4.a
[8b
4b]
[4cc#
=96
2cc#]
8r
8ff#L
8ee
8cc#J
=97
*k[b-]
8.ccL
[16ddJk
8ddL]
8aJ
8gL
8f
8g
8ddJ
=98
8ccL
16ddL
[16aJJ
8aL]
8gJ
4f'
8fL
8ccJ
=99
8b-L
8a
8g
8fJ
8eL
8f
8g
8b-J
=100
8aL
16gL
[16aJJ
8aL]
8ddJ
4cc'
8aL
8ccJ
=101
8.ddL
[16b-Jk
8b-L]
8aJ
8gL
8f
8g
8ddJ
=102
8ccL
16ddL
[16aJJ
8aL]
8gJ
4f'
8dL
8eJ
=103
8fL
8d
8f
8gJ
8aL
8f
8a
8ddJ
=104
4cc
8r
8f
8fL
8ff
8ee
8ccJ
=105
8.ccL
[16ddJk
8ddL]
8aJ
8gL
8f
8g
8ddJ
=106
8ccL
16ddL
[16aJJ
8aL]
8gJ
4f'
8fL
8ccJ
=107
8b-L
8a
8g
8fJ
8eL
8f
8g
8b-J
=108
8aL
16gL
[16aJJ
8aL]
8ddJ
4cc
8aL
8ccJ
=109
8.ddL
[16b-Jk
8b-L]
8aJ
8gL
8ee
8dd
8ccJ
=110
8ccL
8dd
8ee
[8ffJ
8ffL]
8a
8g
8fJ
=111
8r
8dL
8f
8b-J
8aL
8f
8d
8fJ
=112
4r
8r
8c
8dL
8e
8f
8ccJ
=113
8b-L
8a
8g
8fJ
8cL
8f
8g
8fJ
=114
4r
8aL
8ccJ
8ddL
8cc
8a
8gJ
=115
8fL
16dL
[16fJJ
16fKL]
8dd
[16ccJk
16cc]
16r
8a
8dL
8fJ
=116
1r
=117
2e
2a
=118
2f
2g
=119
2g
2a
=120
2f
2g
=121
2g
2a
=122
2f
2e
=123
4r
8r
8a
8.a'L
[16aJk
32a]
32r
16r
8a'
==
*-
